X: 1
T: Anna
C: Muriel Johnstone
N: for Anna Holden
R: waltz
Z: 2006 John Chambers <jc:trillian.mit.edu>
M: 3/4
L: 1/8
K: F
CFG \
|:  "F"A4 C2 | "Bb"D3 DGA | "Gm"B4 D2 | "C"E3 EFG | "F"c4 f2 | "Dm"f2 a3 g |1,3 "Gm"f4 e2 | "C7"d2 c2 B2 \
                                                                          :|2,4 "C7"fa g4 | "F"f3 :|
FAB \
|: "Am"c4 A2 | "Dm"F3 FGA | "Gm"B4 G2 | "C7"E3 EFG | "F"A4 F2 | "Bb"d2 "F/A"c2 A2 |1 "Gm"F4 "G7"(3FGA | "C7"G4 AB \
                                                                                 :|2 "C7"FA G4 | "F"F3 ||
FAB \
|: "Am"c4 Aa | "Dm"f3 edc | "Gm"B4 Gg | "C7"e3 dcB | "F"A4 F2 | "Bb"d2 "F/A"c2 A2 |1 "Gm"F4 "G7"(3FGA | "C7"G4 AB \
                                                                                 :|2 "C7"FA G4 | "F"F3 |]
